X:1
T:[ID 2-12]
T:[ID 2-12]
T:Bezeichnung standardisiert: Menuett Men\"uet ex D. #.1
T:Urheber unbekannt Datum in der hier transkribierten schriftlichen Quelle: 1767
C:Urheber unbekannt
C:Datum in der hier transkribierten schriftlichen Quelle: 1767
L:1/8
M:3/4
K:D
V:1 treble 
V:1
 D2 d4 | d2 AGFE | D2 f4 | efge f2 | d2 d2 d2 | cdec d2 | a2 bagf | e6 :: A2 a2 a2 | a2 edcB | %10
 A2 g2 f2 | edcB A2 | DFAd fa | bgec d2 | (3BAG F2 E2 | D6 :| %16

